X: 1
T:Wat:erloo -- Reel
M:2/4
L:1/16
R:reel
B:Ryan's Mammoth Collection
N:186
Z:Contributed by Ray Davies,  ray:davies99.freeserve.co.uk
K:D
uA|\
.d2(cd) (Bd)(Ad) | cdef geag | fdcd BdAd | BGEA (FD).D.A |
.d2(cd) (Bd)(Ad) | cdef geag | fdcd BdAd | BGEA (FD).D  :|
|:A|\
((3FED).F.A BcdB | AFAd cdeg | fdge afed | cedB .A2(Ac) |
BGBe cAcf | dBdg ecea | fded ceag | fdec d2 z :|
